<?xml version="1.0" encoding="UTF-8"?>
<map version="1.10" tiledversion="1.12.1" orientation="orthogonal" renderorder="right-down" width="100" height="45" tilewidth="32" tileheight="32" infinite="0" nextlayerid="2" nextobjectid="1">
 <tileset firstgid="1" source="AllInOne.tsx"/>
 <layer id="1" name="Tile Layer 1" width="100" height="45">
  <data encoding="csv">
0,0,0,0,0,0,0,0,0,0,0,0,0,0,0,0,0,0,0,0,0,0,0,0,0,0,0,0,0,0,0,0,0,0,0,0,0,0,0,0,0,0,0,0,0,0,0,0,0,0,0,0,0,0,0,0,0,0,0,0,0,0,0,0,0,0,0,0,0,0,0,0,0,0,0,0,0,0,0,0,0,0,0,0,0,0,0,0,0,0,0,0,0,0,0,0,0,0,0,0,
0,0,0,0,0,0,0,0,0,0,0,0,0,0,0,0,0,0,0,0,0,0,0,0,0,0,0,0,0,0,0,0,0,0,0,0,0,0,0,0,0,0,0,0,0,0,0,0,0,0,0,0,0,0,0,0,0,0,0,0,0,0,0,0,0,0,0,0,0,0,0,0,0,0,0,0,0,0,0,0,0,0,0,0,0,0,0,0,0,0,0,0,0,0,0,0,0,0,0,0,
0,0,0,0,0,0,0,0,0,0,0,0,0,0,0,0,0,0,0,0,0,0,0,0,0,0,0,0,0,0,0,0,0,0,0,0,0,0,0,0,0,0,0,0,0,0,0,0,0,0,0,0,0,0,0,0,0,0,0,0,0,0,0,0,0,0,0,0,0,0,0,0,0,0,0,0,0,0,0,0,0,0,0,0,0,0,0,0,0,0,0,0,0,0,0,0,0,0,0,0,
0,0,0,0,0,0,0,0,0,0,0,0,0,0,0,0,0,0,0,0,0,0,0,0,0,0,0,0,0,0,0,0,0,0,0,0,0,0,0,0,0,0,0,0,0,0,0,0,0,0,0,0,0,0,0,0,0,0,0,0,0,0,0,0,0,0,0,0,0,0,0,0,0,0,0,0,0,0,0,0,0,0,0,0,0,0,0,0,0,0,0,0,0,0,0,0,0,0,0,0,
0,0,0,0,0,0,0,0,0,0,0,0,0,0,0,0,0,0,0,0,0,0,0,0,0,0,0,0,0,0,0,0,0,0,0,0,0,0,0,0,0,0,0,0,0,0,0,0,0,0,0,0,0,0,0,0,0,0,0,0,0,0,0,0,0,0,0,0,0,0,0,0,0,0,0,0,0,0,0,0,0,0,0,0,0,0,0,0,0,0,0,0,0,0,0,0,0,0,0,0,
0,0,0,0,0,0,0,0,0,0,0,0,0,0,0,0,0,0,0,0,0,0,0,0,0,0,0,0,0,0,0,0,0,0,0,0,0,0,0,0,0,0,0,0,0,0,0,0,0,0,0,0,0,0,0,0,0,0,0,0,0,0,0,0,0,0,0,0,0,0,0,0,0,0,0,0,0,0,0,0,0,0,0,0,0,0,0,0,0,0,0,0,0,0,0,0,0,0,0,0,
3221225510,0,0,0,0,0,0,0,0,0,0,0,0,0,0,0,0,0,0,0,0,0,0,0,0,0,0,0,0,0,0,0,0,0,0,0,0,0,0,0,0,0,0,0,0,0,0,0,0,0,0,0,0,0,0,0,0,0,0,0,0,0,0,0,0,0,0,0,0,0,0,0,0,0,0,0,0,0,0,0,0,0,0,0,0,0,0,0,0,0,0,0,0,0,0,0,0,0,0,0,
3221225510,0,0,0,0,0,0,0,0,0,0,0,0,0,0,0,0,0,0,0,0,0,0,0,0,0,0,0,0,0,0,0,0,0,0,0,0,0,0,0,0,0,0,0,0,0,0,0,0,0,0,0,0,0,0,0,0,0,0,0,0,0,0,0,0,0,0,0,0,0,0,0,0,0,0,0,0,0,0,0,0,0,0,0,0,0,0,0,0,0,0,0,0,0,0,0,0,0,0,0,
3221225510,0,0,0,0,0,0,0,0,0,0,0,0,0,0,0,0,0,0,0,0,0,0,0,0,0,0,0,0,0,0,0,0,0,0,0,0,0,0,0,0,0,0,0,0,0,0,0,0,0,0,0,0,0,0,0,0,0,0,0,0,0,0,0,0,0,0,0,0,0,0,0,0,0,0,0,0,0,0,0,0,0,0,0,0,0,0,0,0,0,0,0,0,0,0,0,0,0,0,0,
3221225510,0,0,0,0,0,0,0,0,0,0,0,0,0,0,0,0,0,0,0,0,0,0,0,0,0,0,0,0,0,0,0,0,0,0,0,0,0,0,0,0,0,0,0,0,0,0,0,0,0,0,0,0,0,0,0,0,0,0,0,0,0,0,0,0,0,0,0,0,0,0,0,0,0,0,0,0,0,0,0,0,0,0,0,0,0,0,0,0,0,0,0,0,0,0,0,0,0,0,0,
3221225510,0,0,0,0,0,0,0,0,0,0,0,0,0,0,0,0,0,0,0,0,0,0,0,0,0,0,0,0,0,0,0,0,0,0,0,0,0,0,0,0,0,0,0,0,0,0,0,0,0,0,0,0,0,0,0,0,0,0,0,0,0,0,0,0,0,0,0,0,0,0,0,0,0,0,0,0,0,0,0,0,0,0,0,0,0,0,0,0,0,0,0,0,0,0,0,0,0,0,0,
3221225510,0,0,0,0,0,0,0,0,0,0,0,0,0,0,0,0,0,0,0,0,0,0,0,0,0,0,0,0,0,0,0,0,0,0,0,0,0,0,0,0,0,0,0,0,0,0,0,0,0,0,0,0,0,0,0,0,0,0,0,0,0,0,0,0,0,0,0,0,0,0,0,0,0,0,0,0,0,0,0,0,0,0,0,0,0,0,0,0,0,0,0,0,0,0,0,0,0,0,0,
3221225510,0,0,0,0,0,0,0,0,0,0,0,0,0,0,0,0,0,0,0,0,0,0,0,0,0,0,0,0,0,0,0,0,0,0,0,0,0,0,0,0,0,0,0,0,0,0,0,0,0,0,0,0,0,0,0,0,0,0,0,0,0,0,0,0,0,0,0,0,0,0,0,0,0,0,0,0,0,0,0,0,0,0,0,0,0,0,0,0,0,0,0,0,0,0,0,0,0,0,0,
3221225510,0,0,0,0,0,0,0,0,0,0,0,0,0,0,0,0,0,0,0,0,0,0,0,0,0,0,0,0,0,0,0,0,0,0,0,0,0,0,0,0,0,0,0,0,0,0,0,0,0,0,0,0,0,0,0,0,0,0,0,0,0,0,0,0,0,0,0,0,0,0,0,0,0,0,0,0,0,0,0,0,0,0,0,0,0,0,0,0,0,0,0,0,0,0,0,0,0,0,0,
3221225510,0,0,0,0,0,0,0,0,0,0,0,0,0,0,0,0,0,0,0,0,0,0,0,0,0,0,0,0,0,0,0,0,0,0,0,0,0,0,0,0,0,0,0,0,0,0,0,0,0,0,0,0,0,0,0,0,0,0,0,0,0,0,0,0,0,0,0,0,0,0,0,0,0,0,0,0,0,0,0,0,0,0,0,0,0,0,0,0,0,0,0,0,0,0,0,0,0,0,0,
3221225510,0,0,0,0,0,0,0,0,0,0,0,0,0,0,0,0,0,0,0,0,0,0,0,0,0,0,0,0,0,0,0,0,0,0,0,0,0,0,0,0,0,0,0,0,0,0,0,0,0,0,0,0,0,0,0,0,0,0,0,0,0,0,0,0,0,0,0,0,0,0,0,0,0,0,0,0,0,0,0,0,0,0,0,0,0,0,0,0,0,0,0,0,0,0,0,0,0,0,0,
3221225510,0,0,0,0,0,0,0,0,0,0,0,0,0,0,0,0,0,0,0,0,0,0,0,0,0,0,0,0,0,0,0,0,0,0,0,0,0,0,0,0,0,0,0,0,0,0,0,0,0,0,0,0,0,0,0,0,0,0,0,0,0,0,0,0,0,0,0,0,0,0,0,0,0,0,0,0,0,0,0,0,0,0,0,0,0,0,0,0,0,0,0,0,0,0,0,0,0,0,0,
3221225510,0,0,0,0,0,0,0,0,0,0,0,0,0,0,0,0,0,0,0,0,0,0,0,0,0,0,0,0,0,0,0,0,0,0,0,0,0,0,0,0,0,0,0,0,0,0,0,0,0,0,0,0,0,0,0,0,0,0,0,0,0,0,0,0,0,0,0,0,0,0,0,0,0,0,0,0,0,0,0,0,0,0,0,0,0,0,0,0,0,0,0,0,0,0,0,0,0,0,0,
3221225510,0,0,0,0,0,0,0,0,0,0,0,0,0,0,0,0,0,0,0,0,0,0,0,0,0,0,0,0,0,0,0,0,0,0,0,0,0,0,0,0,0,0,0,0,0,0,0,0,0,0,0,0,0,0,0,0,0,0,0,0,0,0,0,0,0,0,0,0,0,0,0,0,0,0,0,0,0,0,0,0,0,0,0,0,0,0,0,0,0,0,0,0,0,0,0,0,0,0,0,
3221225510,0,0,0,0,0,0,0,0,0,0,0,0,0,0,0,0,0,0,0,0,0,0,0,0,0,0,0,0,0,0,0,0,0,0,0,0,0,0,0,0,0,0,0,0,0,0,0,0,0,0,0,0,0,0,0,0,0,0,0,0,0,0,0,0,0,0,0,0,0,0,0,0,0,0,0,0,0,0,0,0,0,0,0,0,0,0,0,0,0,0,0,0,0,0,0,0,0,0,0,
3221225510,0,0,0,0,0,0,0,0,0,0,0,0,0,0,0,0,0,0,0,0,0,0,0,0,0,0,0,0,0,0,0,0,0,0,0,0,0,0,0,0,0,0,0,0,0,0,0,0,0,0,0,0,0,0,0,0,0,0,0,0,0,0,0,0,0,0,0,0,0,0,0,0,0,0,0,0,0,0,0,0,0,0,0,0,0,0,0,0,0,0,0,0,0,0,0,0,0,0,0,
3221225510,0,0,0,0,0,0,0,0,0,0,0,0,0,0,0,0,0,0,0,0,0,0,0,0,0,0,0,0,0,0,0,0,0,0,0,0,0,0,0,0,0,0,0,0,0,0,0,0,0,0,0,0,0,0,0,0,0,0,0,0,0,0,0,0,0,0,0,0,0,0,0,0,0,0,0,0,0,0,0,0,0,0,0,0,0,0,0,0,0,0,0,0,0,0,0,0,0,0,0,
3221225510,0,0,0,0,0,0,0,0,0,0,0,0,0,0,0,0,0,0,0,0,0,0,0,0,0,0,0,0,0,0,0,0,0,0,0,0,0,0,0,0,0,0,0,0,0,0,0,0,0,0,0,0,0,0,0,0,0,0,0,0,0,0,0,0,0,0,0,0,0,0,0,0,0,0,0,0,0,0,0,0,0,0,0,0,0,0,0,0,0,0,0,0,0,0,0,0,0,0,0,
3221225510,0,0,0,0,0,0,0,0,0,0,0,0,0,0,0,0,0,0,0,0,0,0,0,0,0,0,0,0,0,0,0,0,0,0,0,0,0,0,0,0,0,0,0,0,0,0,0,0,0,0,0,0,0,0,0,0,0,0,0,0,0,0,0,0,0,0,0,0,0,0,0,0,0,0,0,0,0,0,0,0,0,0,0,0,0,0,0,0,0,0,0,0,0,0,0,0,0,0,0,
3221225510,0,0,0,0,0,0,0,0,0,0,0,0,0,0,0,0,0,0,0,0,0,0,0,0,0,0,0,0,0,0,0,0,0,0,0,0,0,0,0,0,0,0,0,0,0,0,0,0,0,0,0,0,0,0,0,0,0,0,0,0,0,0,0,0,0,0,0,0,0,0,0,0,0,0,0,0,0,0,0,0,0,0,0,0,0,0,0,0,0,0,0,0,0,0,0,0,0,0,0,
3221225510,0,0,0,0,0,0,0,0,0,0,0,0,0,0,0,0,0,0,0,0,0,0,0,0,0,0,0,0,0,0,0,0,0,0,0,0,0,0,0,0,0,0,0,0,0,0,0,0,0,0,0,0,0,0,0,0,0,0,0,0,0,0,0,0,0,0,0,0,0,0,0,0,0,0,0,0,0,0,0,0,0,0,0,0,0,0,0,0,0,0,0,0,0,0,0,0,0,0,0,
3221225510,0,0,0,0,0,0,0,0,0,0,0,0,0,0,0,0,0,0,0,0,0,0,0,0,0,0,0,0,0,0,0,0,0,0,0,0,0,0,0,0,0,0,0,0,0,0,0,0,0,0,0,0,0,0,0,0,0,0,0,0,0,0,0,0,0,0,0,0,0,0,0,0,0,0,0,0,0,0,0,0,0,0,0,0,0,0,0,0,0,0,0,0,0,0,0,0,0,0,0,
3221225510,0,0,0,0,0,0,0,0,0,0,0,0,0,0,0,0,0,0,0,0,0,0,0,0,0,0,0,0,0,0,0,0,0,0,0,0,0,0,0,0,0,0,0,0,0,0,0,0,0,0,0,0,0,0,0,0,0,0,0,0,0,0,0,0,0,0,0,0,0,0,0,0,0,0,0,0,0,0,0,0,0,0,0,0,0,0,0,0,0,0,0,0,0,0,0,0,0,0,0,
3221225510,1,13,1,13,1,13,1,13,1,13,1,13,1,13,1,13,1,13,1,13,1,13,1,13,1,13,1,13,13,1,13,1,13,1,13,1,13,1,13,1,13,1,13,1,13,1,13,1,13,1,13,1,13,1,13,1,13,13,1,13,1,13,1,13,1,13,1,13,1,13,1,1,13,1,13,1,13,1,13,1,13,1,13,1,0,0,0,0,0,0,0,0,0,0,0,0,0,0,0,
3221225510,13,1,13,1,13,1,13,1,13,1,13,1,13,1,13,1,13,1,13,1,13,1,13,1,13,1,13,1,13,13,1,13,1,13,1,13,1,13,1,13,1,13,1,13,1,13,1,13,1,13,1,13,1,13,1,13,1,13,13,1,13,1,13,1,13,1,13,1,13,1,13,13,1,13,1,13,1,13,1,13,1,13,1,13,0,0,0,0,0,0,0,0,0,0,0,0,0,0,0,
3221225510,1,13,1,13,1,13,1,13,1,13,1,13,1,13,1,13,1,13,1,13,1,13,1,13,1,13,1,13,1,1,13,1,13,1,13,1,13,1,13,1,13,1,13,1,13,1,13,1,13,1,13,1,13,1,13,1,13,1,1,13,1,13,1,13,1,13,1,13,1,13,1,1,13,1,13,1,13,1,13,1,13,1,13,1,0,0,0,0,0,0,0,0,0,0,0,0,0,0,0,
3221225510,13,1,13,1,13,1,13,1,13,1,13,1,13,1,13,1,13,1,13,1,13,1,13,1,13,1,13,1,13,13,1,13,1,1,1,13,1,13,1,13,1,13,1,13,1,13,1,13,1,13,1,13,1,13,1,13,1,13,13,1,13,1,13,1,13,1,13,1,13,1,13,13,1,13,1,13,1,13,1,13,1,13,1,13,0,0,0,0,0,0,0,0,0,0,0,0,0,0,0,
3221225510,1,13,1,13,1,13,1,13,1,13,1,13,1,13,1,13,1,13,1,13,1,13,1,13,1,13,1,13,1,1,13,1,13,13,13,1,13,1,13,1,13,1,13,1,13,1,13,1,13,1,13,1,13,1,13,1,13,1,1,13,1,13,1,13,1,13,1,13,1,13,1,1,13,1,13,1,13,1,13,1,13,1,13,1,0,0,0,0,0,0,0,0,0,0,0,0,0,0,0,
3221225510,13,1,13,1,13,1,13,1,13,1,13,1,13,1,13,1,13,1,13,1,13,1,13,1,13,1,13,1,13,13,1,13,1,38,2684354598,2684354598,2684354598,2684354598,2684354598,2684354598,2684354598,2684354598,2684354598,2684354598,2684354598,2684354598,2684354598,2684354598,13,1,13,1,13,1,13,1,13,1,13,1,13,1,13,1,13,1,13,1,13,1,13,13,1,13,1,13,1,13,1,13,1,13,1,13,0,0,0,0,0,0,0,0,0,0,0,0,0,0,0,
3221225510,1,13,1,13,1,13,1,13,1,13,1,13,1,13,1,13,1,13,1,13,1,13,1,13,1,13,1,13,1,1,13,1,13,38,13,1,13,1,13,1,13,1,13,1,13,1,13,38,13,1,13,1,13,1,13,1,13,1,1,13,1,13,1,13,1,13,1,13,1,13,1,1,13,1,13,1,13,1,13,1,13,1,13,1,0,0,0,0,0,0,0,0,0,0,0,0,0,0,0,
3221225510,1610612774,1610612774,1610612774,1610612774,1610612774,1610612774,1610612774,1610612774,1610612774,1610612774,1610612774,1610612774,1610612774,1610612774,1610612774,1610612774,1610612774,1610612774,1610612774,1610612774,1610612774,1610612774,1610612774,1610612774,1610612774,1610612774,1610612774,1610612774,1610612774,1610612774,1610612774,1610612774,1610612774,1610612774,1,13,1,13,1,13,1,13,1,13,1,13,1,38,1610612774,1610612774,1610612774,1610612774,1610612774,1610612774,1610612774,1610612774,1610612774,1610612774,1610612774,1610612774,2684354598,1,13,1,13,1,13,1,13,1,13,13,1,13,1,13,1,13,1,13,1,13,1,13,0,0,0,0,0,0,0,0,0,0,0,0,0,0,0,
38,1,13,1,13,1,13,1,13,1,13,1,13,1,13,1,13,1,13,1,13,1,13,1,13,1,13,1,13,13,1,13,1,13,1,13,1,13,1,13,1,13,1,13,1,13,1,13,1,13,1,13,1,13,1,13,1,13,13,1,13,38,13,1,13,1,13,1,13,1,13,1,13,1,13,1,13,1,13,1,13,1,13,1,13,1,13,13,0,0,0,0,0,0,0,0,0,0,0,0,
38,13,1,13,1,13,1,13,1,13,1,13,1,13,1,13,1,13,1,13,1,13,1,13,1,13,1,13,1,13,13,1,13,1,13,1,13,1,13,1,13,1,13,1,13,1,13,1,13,1,13,1,13,1,13,1,13,1,13,13,1,38,1,13,1,13,1,13,1,13,1,13,1,13,1,13,1,13,1,13,1,13,1,13,1,13,1,13,0,0,0,0,0,0,0,0,0,0,0,0,
38,1,13,1,13,1,13,1,13,1,13,1,13,1,13,1,13,1,13,1,13,1,13,1,13,1,13,1,13,1,1,13,1,13,1,13,1,13,1,13,1,13,1,13,1,13,1,13,1,13,1,13,1,13,1,1,1,1,1,1,2684354598,38,13,1,13,1,13,1,13,1,13,1,13,1,13,1,13,1,13,1,13,1,13,1,13,1,13,1,0,0,0,0,0,0,0,0,0,0,0,0,
38,13,1,13,1,13,1,13,1,13,1,13,1,13,1,13,1,13,1,13,1,13,1,13,1,13,1,13,1,13,13,1,13,1,13,1,13,1,13,1,13,1,13,1,13,1,13,1,13,1,13,1,13,1,13,1610612749,1610612749,1610612749,1610612749,13,1610612749,1610612749,13,13,13,13,13,13,13,13,13,13,13,13,1610612749,1610612749,1610612749,13,1,13,1,13,1,13,1,13,1,13,0,0,0,0,0,0,0,0,0,0,0,0,
38,1,13,1,13,1,13,1,13,1,13,1,13,1,13,1,13,1,13,1,13,1,13,1,13,1,13,1,13,1,1,13,1,13,1,13,1,13,1,13,1,13,1,13,1,13,1,13,1,13,1,13,1,13,1,1610612737,1610612737,1610612737,1610612737,1,1610612737,1610612737,1,1,1,1,1,1,1,1,1,1,1,1,1610612737,1610612737,1610612737,1,13,1,13,1,13,1,13,1,13,1,0,0,0,0,0,0,0,0,0,0,0,0,
38,13,1,13,1,13,1,13,1,13,1,13,1,13,1,13,1,13,1,13,1,13,1,13,1,13,1,13,1,13,13,1,13,1,13,1,13,1,13,1,13,1,13,1,13,1,13,1,13,1,13,1,13,1,13,1610612749,1610612749,1610612749,1610612749,13,1610612749,1610612749,13,13,13,13,13,13,13,13,13,13,13,13,1610612749,1610612749,1610612749,13,1,13,1,13,1,13,1,13,1,13,0,0,0,0,0,0,0,0,0,0,0,0,
38,1,13,1,13,1,13,1,13,1,13,1,13,1,13,1,13,1,13,1,13,1,13,1,13,1,13,1,13,1,1,13,1,13,1,13,1,13,1,13,1,13,1,13,1,13,1,13,1,13,1,13,1,13,1,13,1,13,13,1,1610612774,1610612774,13,1,13,1,13,1,13,1,13,1,13,1,13,1,13,1,13,1,13,1,13,1,13,1,13,1,0,0,0,0,0,0,0,0,0,0,0,0,
38,13,1,13,1,13,1,13,1,13,1,13,1,13,1,13,1,13,1,13,1,13,1,13,1,13,1,13,1,13,13,1,13,1,13,1,13,1,13,1,13,1,13,1,13,1,13,1,13,1,13,1,13,1,13,1,13,1,13,13,1,38,1,13,1,13,1,13,1,13,1,13,1,13,1,13,1,13,1,13,1,13,1,13,1,13,1,13,0,0,0,0,0,0,0,0,0,0,0,0,
1610612774,1610612774,1610612774,1610612774,1610612774,1610612774,1610612774,1610612774,1610612774,1610612774,1610612774,1610612774,1610612774,1610612774,1610612774,1610612774,1610612774,1610612774,1610612774,1610612774,1610612774,1610612774,1610612774,1610612774,1610612774,1610612774,1610612774,1610612774,1610612774,1610612774,1610612774,1610612774,1610612774,1610612774,1610612774,1610612774,1610612774,1610612774,1610612774,1610612774,1610612774,1610612774,1610612774,1610612774,1610612774,1610612774,1610612774,1610612774,1610612774,1610612774,1610612774,1610612774,1610612774,1610612774,1610612774,1610612774,1610612774,1610612774,1610612774,1610612774,1610612774,1610612774,1610612774,1610612774,1610612774,1610612774,1610612774,1610612774,1610612774,1610612774,1610612774,1610612774,1610612774,1610612774,1610612774,1610612774,1610612774,1610612774,1610612774,1610612774,1610612774,1610612774,1610612774,1610612774,1610612774,1610612774,1610612774,1610612774,1610612774,1610612774,0,0,0,0,0,0,0,0,0,0
</data>
 </layer>
</map>
